icons/image-filled.svg

<svg width="24" height="24" viewBox="0 0 24 24" fill="none" xmlns="http://www.w3.org/2000/svg">
<path fill-rule="evenodd" clip-rule="evenodd" d="M2.193 20.917L2.18 20.918L4 19.326L7.143 16.291L9.785 18.253C10.28 18.589 10.801 18.71 11.349 18.616C11.6102 18.576 11.8598 18.4801 12.0807 18.335C12.3015 18.1899 12.4886 17.9989 12.629 17.775L15.449 13.64L20 17.274L21.986 18.868L22 18.867V19.997C22 21.332 21.333 22 20 22H4C3.021 22 2.402 21.64 2.141 20.922L2.193 20.917ZM22 16.544L20 15L16.703 12.363C16.154 12.003 15.616 11.862 15.09 11.939C14.563 12.016 14.13 12.308 13.79 12.815L11 17L8.388 15.04C7.88 14.742 7.413 14.61 6.988 14.645C6.563 14.68 6.158 14.873 5.773 15.227L4 17L2 18.77V19.385V4C2 2.667 2.667 2 4 2H20C21.333 2 22 2.667 22 4V16.544ZM9 10.919C9.53043 10.919 10.0391 10.7083 10.4142 10.3332C10.7893 9.95814 11 9.44943 11 8.919C11 8.38857 10.7893 7.87986 10.4142 7.50479C10.0391 7.12971 9.53043 6.919 9 6.919C8.46957 6.919 7.96086 7.12971 7.58579 7.50479C7.21071 7.87986 7 8.38857 7 8.919C7 9.44943 7.21071 9.95814 7.58579 10.3332C7.96086 10.7083 8.46957 10.919 9 10.919Z" fill="#3A3A47"/>
</svg>

<svg xmlns="http://www.w3.org/2000/svg" width="24" height="24" viewBox="0 0 24 24">
    <path fill="#3A3A47" fill-rule="evenodd" d="M15.45 13.64L20 17.274l1.985 1.594.015-.001v1.13C22 21.332 21.333 22 20 22H4c-.979 0-1.599-.36-1.859-1.078l.039-.005L4 19.326l3.143-3.035 2.642 1.962c.495.336 1.016.457 1.564.363a1.84 1.84 0 0 0 1.28-.841l2.82-4.135zM20 2c1.333 0 2 .667 2 2v12.544L20 15l-3.297-2.637c-.549-.36-1.087-.501-1.613-.424-.469.068-.863.306-1.183.715l-.117.161L11 17l-2.612-1.96c-.508-.298-.975-.43-1.4-.395-.372.03-.728.183-1.07.457l-.145.125L4 17l-2 1.77V4c0-1.333.667-2 2-2h16zM9 6.919a2 2 0 1 0 0 4 2 2 0 0 0 0-4z"/>
</svg>
